X:1
T:A Little Longer
T:A Little Longer
T:Fannie Birdsall Bula
T:Frances E. Townsley, 1890
T:Public Domain Courtesy of the Cyber Hymnal™
T:Public Domain Courtesy of the Cyber Hymnal™
C:Fannie Birdsall Bula
Z:Public Domain
Z:Courtesy of the Cyber Hymnal™
%%score 1 2
L:1/8
Q:1/4=90
M:3/4
K:Bb
V:1 treble 
V:2 bass 
V:1
 [B,D]>[CE] | [DF]3 [Fd] [Ec]>[DB] | [DF]6 | [EF]3 [EA] [EG]>[EF] | [DF] [DB]3 [B,D]>[CE] | %5
w: 1.~Trav- eler,|tho’ thy feet are|worn,|Climb a lit- tle|long- er! Tho’ with|
w: 2.~Tho’ thy|heart is ach- ing|sore,|Bear a lit- tle|long- er! Stands an-|
w: 3.~Step by|step climb high- er|still,|Climb a lit- tle|long- er! At the|
w: 4.~Glo- ry|in the sun- set|land|Waits a lit- tle|long- er! Till the|
 [DF]3 [Fd] [Ec]>[DB] | [DF]6 | [EF]3 [EA] [EG]>[EF] | [DF] [DB]3 [DF][DF] | [Ec]3 [EA] [EG][EA] | %10
w: thorns thy hands are|torn,|Cling a lit- tle|long- er! Thorns shall|change to wav- ing|
w: o- ther cross be-|fore,|Lift a lit- tle|long- er! No more|heart- ache, no more|
w: top thy heart shall|thrill,|Hope a lit- tle|long- er! On thy|brow shall shine a|
w: loved shall clasp thy|hand,|With a love grown|strong- er; Friends are|beck- oning from the|
 [DB]4 [DF]>[DF] | [EA]3 [EG] [CF]>[CE] | [B,D]4 [B,D]>[CE] | [DF]3 [DB] [FB]>[DA] | [EG]6 | %15
w: palms, Tem- pests|cease in heav’n- ly|calms, Joy shall|ban- ish thine a-|larms,|
w: pain, In the|land thou yet shall|gain, On- ly|faith- ful- ly re-|main,|
w: gem, Spark- ling|in life’s di- a-|dem, In the|new Je- ru- sa-|lem,|
w: skies, Urg- ing|on the soul that|tries Still to|reach Heav’n’s par- a-|dise,|
 [EF]3 [EA] [EG]>[EF] | [DF] [DB]3 ||"^Refrain" [EF]>[EF] | [EF]2 [EA]2 [EA]2 [EG]2 | %19
w: Wait a lit- tle|long- er!|||
w: True a lit- tle|long- er!|As I|walk the way no|
w: On a lit- tle|long- er!|||
w: On! a lit- tle|long- er!|||
 [DF][DB] [DB]>[Ec] [DB]2 [DB][Ec] | [Fd][DF] [Fd][Ge] [Fd]<[Ec][EG]>[EA] | [DB]6 |] %22
w: |||
w: ter- ror can a- larm, For He|holds me with His ev- er- last- ing|arms.|
w: |||
w: |||
V:2
 [B,,F,]>[B,,F,] | [B,,B,]3 [B,,B,] [B,,F,]>[B,,F,] | [B,,B,]6 | [F,A,]3 [F,C] [F,C]>[F,A,] | %4
 [B,,B,] [B,,F,]3 [B,,F,]>[B,,F,] | [B,,B,]3 [B,,B,] [B,,F,]>[B,,F,] | [B,,B,]6 | %7
 [F,A,]3 [F,C] [F,B,]>[F,A,] | [B,,B,] [B,,F,]3 [B,,B,][B,,B,] | [F,A,]3 [F,C] [F,C][F,C] | %10
 [B,,B,]4 [B,,B,]>[B,,B,] | [F,C]3 [F,C] [F,A,]>[F,A,] | [B,,B,]4 [B,,F,]>[B,,F,] | %13
 [B,,B,]3 [B,,B,] [D,B,]>[B,,B,] | [E,B,]6 | [F,A,]3 [F,C] [F,A,]>[F,A,] | [B,,B,] [B,,F,]3 || %17
 [F,A,]>[F,A,] | [F,A,]2 [F,C]2 [F,C]2 [F,A,]2 | %19
 [B,,B,][B,,F,] [B,,F,]>[B,,F,] [B,,F,]2 [B,,F,][B,,F,] | %20
 [B,,F,][B,,B,] [B,,B,][E,B,] [F,B,]<[F,A,][F,C]>[F,C] | [B,,B,]6 |] %22

